X:1
T:The Old Rugged Cross
T:The old rugged Cross 
T:George Bennard
C:George Bennard
Z:All Rights Reserved
L:1/8
M:6/8
K:Bb
V:1 treble 
%%MIDI program 4
V:1
"Bb" DD | F=EG F2 F/F/ |"Eb" E>^FA G"Cm"GG |"F7" AGF EFE |"Bb" D3- D2 D/E/ | F>=EG F"E"FF | %6
w: On a|hill far a- way stood an|old rug- ged cross the *|em- blem of suff- ring and|shame _ and I|love that old cross where the|
w: ||||||
"Eb" G>^FA G"Cm" GG |"F7" AGF e2 d/c/ |"Bb" B3-"^Chorus:" B2 z | z2"F7" A2 B2 | c>cc cBA | %11
w: dear est and best for a|world of lost sin ners was|slain _|So I'll|cher- rish the old rug- ged|
w: |||So I'll|cher- rish the cross, the old|
"Bb" B2 ^C EB"D7"B/A/ |"Eb" G>GG BAG |"Bb" F3- F2 F/B/ | d>dd ded |"Eb" GEE Gee |"F7" d>cB FAc | %17
w: cross * * * till my|troph- ies at last I lay|down _ I will|cling to the old rug- ged|cross * * * and ex-|change it some day for a|
w: rug- ged cross * * *||* * I will|cling to the cross, the old|rug- ged cross * * *||
"Bb" B6- | B2 z4 |] %19
w: crown|_|
w: ||

